flaticon/army-badges/badge-2.svg

<svg xmlns="http://www.w3.org/2000/svg" width="32" height="32" viewBox="0 0 24 24">
    <path d="M 16.410156 8 L 15.210938 8 L 15.210938 6.796875 C 15.210938 6.558594 15.050781 6.398438 14.808594 6.398438 L 9.207031 6.398438 C 8.96875 6.398438 8.808594 6.558594 8.808594 6.796875 L 8.808594 8 L 7.605469 8 C 7.367188 8 7.207031 8.160156 7.207031 8.398438 L 7.207031 16.363281 C 7.207031 16.480469 7.246094 16.601562 7.367188 16.683594 L 11.769531 19.601562 C 11.847656 19.644531 11.929688 19.683594 12.007812 19.683594 C 12.089844 19.683594 12.167969 19.683594 12.25 19.601562 L 16.652344 16.683594 C 16.730469 16.601562 16.8125 16.480469 16.8125 16.363281 L 16.8125 8.398438 C 16.8125 8.160156 16.652344 8 16.410156 8 Z M 16.011719 16.121094 L 12.007812 18.804688 L 8.007812 16.160156 L 8.007812 8.796875 L 9.207031 8.796875 C 9.449219 8.796875 9.609375 8.636719 9.609375 8.398438 L 9.609375 7.199219 L 14.410156 7.199219 L 14.410156 8.398438 C 14.410156 8.636719 14.570312 8.796875 14.808594 8.796875 L 16.011719 8.796875 Z M 16.011719 16.121094"/>
    <path d="M 22.648438 6.261719 C 22.691406 6.207031 22.722656 6.132812 22.730469 6.050781 L 23.277344 4.671875 C 23.332031 4.609375 23.363281 4.527344 23.371094 4.433594 L 23.972656 2.917969 C 24.015625 2.796875 24.015625 2.675781 23.933594 2.554688 C 23.855469 2.476562 23.734375 2.394531 23.613281 2.394531 L 17.609375 2.394531 C 17.492188 2.394531 17.371094 2.476562 17.25 2.597656 L 15.785156 4.796875 L 8.21875 4.796875 L 6.726562 2.554688 C 6.644531 2.476562 6.527344 2.394531 6.40625 2.394531 L 0.402344 2.394531 C 0.285156 2.394531 0.164062 2.515625 0.0820312 2.597656 C 0.00390625 2.675781 -0.0351562 2.835938 0.0429688 2.957031 L 0.652344 4.476562 C 0.660156 4.539062 0.683594 4.59375 0.714844 4.640625 L 1.292969 6.085938 C 1.300781 6.140625 1.324219 6.191406 1.351562 6.234375 L 1.933594 7.695312 C 1.945312 7.746094 1.960938 7.792969 1.988281 7.832031 L 2.886719 10.078125 C 3.40625 11.359375 4.324219 12.359375 5.445312 12.960938 C 5.496094 12.992188 5.550781 13.023438 5.605469 13.054688 L 5.605469 17.203125 C 5.605469 17.363281 5.6875 17.480469 5.765625 17.523438 L 11.769531 21.523438 C 11.847656 21.5625 11.929688 21.605469 12.007812 21.605469 C 12.089844 21.605469 12.167969 21.605469 12.25 21.523438 L 18.25 17.523438 C 18.332031 17.441406 18.410156 17.324219 18.410156 17.203125 L 18.410156 13.042969 C 18.46875 13.019531 18.523438 12.992188 18.570312 12.960938 C 19.691406 12.398438 20.613281 11.359375 21.132812 10.078125 L 22.019531 7.847656 C 22.054688 7.796875 22.078125 7.738281 22.085938 7.671875 Z M 3.644531 9.800781 L 2.925781 8 L 4.40625 8 C 4.644531 8 4.804688 7.839844 4.804688 7.597656 C 4.804688 7.359375 4.644531 7.199219 4.40625 7.199219 L 2.605469 7.199219 L 2.285156 6.398438 L 3.605469 6.398438 C 3.84375 6.398438 4.003906 6.238281 4.003906 5.996094 C 4.003906 5.757812 3.84375 5.597656 3.605469 5.597656 L 1.964844 5.597656 L 1.644531 4.796875 L 3.203125 4.796875 C 3.445312 4.796875 3.605469 4.636719 3.605469 4.398438 C 3.605469 4.15625 3.445312 3.996094 3.203125 3.996094 L 1.324219 3.996094 L 1.003906 3.195312 L 6.207031 3.195312 L 7.320312 4.90625 C 7.246094 4.976562 7.207031 5.074219 7.207031 5.195312 L 7.207031 6.398438 L 6.007812 6.398438 C 5.765625 6.398438 5.605469 6.558594 5.605469 6.796875 L 5.605469 12.160156 C 4.765625 11.640625 4.046875 10.839844 3.644531 9.800781 Z M 17.609375 17.003906 L 12.007812 20.722656 L 6.40625 17.003906 L 6.40625 7.199219 L 7.605469 7.199219 C 7.847656 7.199219 8.007812 7.039062 8.007812 6.796875 L 8.007812 5.597656 L 16.011719 5.597656 L 16.011719 6.796875 C 16.011719 7.039062 16.171875 7.199219 16.410156 7.199219 L 17.609375 7.199219 Z M 18.410156 12.160156 L 18.410156 6.796875 C 18.410156 6.558594 18.25 6.398438 18.011719 6.398438 L 16.8125 6.398438 L 16.8125 5.195312 C 16.8125 5.074219 16.769531 4.976562 16.699219 4.90625 L 17.8125 3.195312 L 23.011719 3.195312 L 22.691406 3.996094 L 20.8125 3.996094 C 20.574219 3.996094 20.414062 4.15625 20.414062 4.398438 C 20.414062 4.636719 20.574219 4.796875 20.8125 4.796875 L 22.371094 4.796875 L 22.054688 5.597656 L 20.414062 5.597656 C 20.171875 5.597656 20.011719 5.757812 20.011719 5.996094 C 20.011719 6.238281 20.171875 6.398438 20.414062 6.398438 L 21.734375 6.398438 L 21.414062 7.199219 L 19.613281 7.199219 C 19.371094 7.199219 19.210938 7.359375 19.210938 7.597656 C 19.210938 7.839844 19.371094 8 19.613281 8 L 21.09375 8 L 20.371094 9.800781 C 19.972656 10.839844 19.292969 11.640625 18.410156 12.160156 Z M 18.410156 12.160156"/>
</svg>

<svg xmlns="http://www.w3.org/2000/svg" width="32" height="32" viewBox="0 0 24 24">
    <path d="M16.41 8h-1.2V6.797c0-.238-.16-.399-.401-.399H9.207c-.238 0-.398.16-.398.399V8H7.605c-.238 0-.398.16-.398.398v7.965c0 .117.04.239.16.32l4.403 2.919c.078.043.16.082.238.082.082 0 .16 0 .242-.082l4.402-2.918c.078-.082.16-.204.16-.32V8.397c0-.238-.16-.398-.402-.398zm-.398 8.121l-4.004 2.684-4-2.645V8.797h1.199c.242 0 .402-.16.402-.399V7.2h4.801v1.2c0 .238.16.398.399.398h1.203zm0 0"/>
    <path d="M22.648 6.262a.407.407 0 0 0 .082-.211l.547-1.38a.407.407 0 0 0 .094-.237l.602-1.516a.381.381 0 0 0-.04-.363c-.078-.078-.199-.16-.32-.16H17.61c-.117 0-.238.082-.359.203l-1.465 2.199H8.22L6.727 2.555c-.082-.078-.2-.16-.32-.16H.401c-.117 0-.238.12-.32.203a.302.302 0 0 0-.039.359l.61 1.52a.379.379 0 0 0 .062.164l.578 1.445a.382.382 0 0 0 .059.148l.582 1.461c.011.051.027.098.054.137l.899 2.246a5.663 5.663 0 0 0 2.558 2.883l.16.094v4.148c0 .16.082.277.16.32l6.005 4c.078.04.16.082.238.082.082 0 .16 0 .242-.082l6-4c.082-.082.16-.199.16-.32v-4.16a.88.88 0 0 0 .16-.082c1.121-.563 2.043-1.602 2.563-2.883l.887-2.23a.384.384 0 0 0 .066-.176zM3.645 9.8L2.925 8h1.481c.239 0 .399-.16.399-.402 0-.239-.16-.399-.399-.399h-1.8l-.32-.8h1.32c.238 0 .398-.16.398-.403 0-.238-.16-.398-.399-.398h-1.64l-.32-.801h1.558c.242 0 .402-.16.402-.399 0-.242-.16-.402-.402-.402H1.324l-.32-.8h5.203l1.113 1.71a.382.382 0 0 0-.113.29v1.202h-1.2c-.241 0-.402.16-.402.399v5.363a4.814 4.814 0 0 1-1.96-2.36zm13.964 7.203l-5.601 3.719-5.602-3.72V7.2h1.2c.242 0 .402-.16.402-.402v-1.2h8.004v1.2c0 .242.16.402.398.402h1.2zm.801-4.844V6.797c0-.238-.16-.399-.398-.399h-1.2V5.195a.397.397 0 0 0-.113-.289l1.113-1.71h5.2l-.32.8h-1.88c-.238 0-.398.16-.398.402 0 .239.16.399.398.399h1.56l-.317.8h-1.64c-.243 0-.403.16-.403.4 0 .241.16.401.402.401h1.32l-.32.801h-1.8c-.243 0-.403.16-.403.399 0 .242.16.402.402.402h1.48l-.722 1.8c-.398 1.04-1.078 1.84-1.96 2.36zm0 0"/>
</svg>
